!!!COM: Palestrina, Giovanni Perluigi da
!!!OPR: Sacerdos et pontifex
!!!OTL: Agnus II
**kern	**kern	**kern	**kern	**kern	**kern
*Ibass	*Itenor	*Itenor	*Icalto	*Icant	*Icant
!Bassus	!Tenor 2	!Tenor 1	!Altus	!Cantus 2	!Cantus 1
*clefF4	*clefGv2	*clefGv2	*clefG2	*clefG2	*clefG2
*k[b-]	*k[b-]	*k[b-]	*k[b-]	*k[b-]	*k[b-]
*G:dor	*G:dor	*G:dor	*G:dor	*G:dor	*G:dor
*M4/2	*M4/2	*M4/2	*M4/2	*M4/2	*M4/2
=1	=1	=1	=1	=1	=1
0r	0r	0r	0r	1r	1.dd
.	.	.	.	[1dd	.
.	.	.	.	.	2g
=2	=2	=2	=2	=2	=2
0r	0r	2r	0g	2dd]	2.b-
.	.	1g	.	2g	.
.	.	.	.	.	4cc
.	.	.	.	2b-	2dd
.	.	2c	.	[2cc	[2ee-
=3	=3	=3	=3	=3	=3
0r	0r	1e-	1g	4cc]	4ee-]
.	.	.	.	4b-	4dd
.	.	.	.	2g	4b-
.	.	.	.	.	4cc
.	.	1d	1f	2a	2.dd
.	.	.	.	[2dd	.
.	.	.	.	.	4cc
=4	=4	=4	=4	=4	=4
0r	0r	2r	2.g	4dd]	4b-
.	.	.	.	4cc	4a
.	.	2.g	.	4b-	2g
.	.	.	4a	4a	.
.	.	.	2b-	1g	2dd
.	.	4f	.	.	.
.	.	4e-	[2cc	.	[2ee-
.	.	4d	.	.	.
=5	=5	=5	=5	=5	=5
0r	1r	2c	2cc]	2g	2ee-]
.	.	2G	2b-	1gg	2dd
.	2r	1d	1a	.	1dd
.	2d	.	.	2ff#	.
=6	=6	=6	=6	=6	=6
0G	2d	4G	[0g	0gg	1b-
.	.	4A	.	.	.
.	2G	4B-	.	.	.
.	.	4c	.	.	.
.	2.B-	1d	.	.	2g
.	.	.	.	.	[2dd
.	4c	.	.	.	.
=7	=7	=7	=7	=7	=7
1G	2d	1B-	1g]	0r	4dd]
.	.	.	.	.	4cc
.	2e	.	.	.	1b-
1F	1f	1c	1r	.	.
.	.	.	.	.	2a
=8	=8	=8	=8	=8	=8
2.G	2d	2B-	1r	2r	1b-
.	2.g	2G	.	1dd	.
4A	.	.	.	.	.
2B-	.	2.g	2r	.	1r
.	4f	.	.	.	.
[2c	4e	.	2g	2g	.
.	4d	4f	.	.	.
=9	=9	=9	=9	=9	=9
2c]	4e	2e	2c	2a	0r
.	4f	.	.	.	.
2B-	1g	2d	2d	2b-	.
1A	.	1c	2e	[1cc	.
.	2f#	.	2c	.	.
=10	=10	=10	=10	=10	=10
1G	1g	2r	2d	2cc]	0dd
.	.	1d	2g	2b-	.
1r	1r	.	2f	2a	.
.	.	2G	[2g	[2b-	.
=11	=11	=11	=11	=11	=11
0r	0r	1B-	4g]	2b-]	1dd
.	.	.	4f	.	.
.	.	.	2d	2g	.
.	.	2A	2e	1a	1cc
.	.	[2a	2A	.	.
=12	=12	=12	=12	=12	=12
0r	2r	4a]	4d	2f	2.dd
.	.	4g	4e	.	.
.	1d	4f	4f	2.ff	.
.	.	4e	4g	.	4ee
.	.	1d	2a	.	2ff
.	.	.	.	4ee	.
.	2G	.	[2b-	4dd	[2gg
.	.	.	.	4cc	.
=13	=13	=13	=13	=13	=13
0r	1B-	1d	2b-]	4b-	4gg]
.	.	.	.	4cc	4ff
.	.	.	2f	1dd	4ff
.	.	.	.	.	8ee
.	.	.	.	.	8dd
.	1A	2r	[1a	.	1ee
.	.	2e	.	2cc#	.
=14	=14	=14	=14	=14	=14
1D	2r	4f	2a]	2dd	[0dd
.	.	4e	.	.	.
.	2d	4d	2f	2a	.
.	.	4c	.	.	.
1G	1d	4B-	1g	1b-	.
.	.	4A	.	.	.
.	.	2G	.	.	.
=15	=15	=15	=15	=15	=15
1D	1d	1A	2f	2a	0dd]
.	.	.	2.a	2f	.
1d	1f	1r	.	2.a	.
.	.	.	4g	.	.
.	.	.	2f	.	.
.	.	.	.	4b-	.
=16	=16	=16	=16	=16	=16
2c	2g	0r	2e	2cc	0r
2B-	2g	.	2d	2dd	.
2.A	1a	.	2e	[1cc	.
.	.	.	[2f	.	.
4B-	.	.	.	.	.
=17	=17	=17	=17	=17	=17
1c	1g	1r	2f]	1cc]	1r
.	.	.	2e	.	.
1F	2r	2r	1f	2cc	1a
.	2f	2F	.	2cc	.
=18	=18	=18	=18	=18	=18
0r	1f	1B-	0r	1dd	1b-
.	[1f	1F	.	2cc	2a
.	.	.	.	2a	2f
=19	=19	=19	=19	=19	=19
0r	2f]	1f	0r	2.cc	2.a
.	2a	.	.	.	.
.	.	.	.	4dd	4b-
.	2g	2e	.	2ee	2cc
.	2f	2d	.	[2ff	2dd
=20	=20	=20	=20	=20	=20
0r	1a	2.A	0r	2ff]	1.cc
.	.	.	.	4ee	.
.	.	4B-	.	4dd	.
.	2.g	2c	.	2ee	.
.	.	2G	.	[2dd	2b-
.	4f	.	.	.	.
=21	=21	=21	=21	=21	=21
2r	1e	1A	2r	2dd]	1a
2A	.	.	2a	2cc#	.
1B-	2r	1d	2f	1dd	2r
.	2d	.	2g	.	2dd
=22	=22	=22	=22	=22	=22
2A	1f	0r	0a	0r	2cc
2F	.	.	.	.	2a
2.A	2e	.	.	.	1cc
.	2c	.	.	.	.
4B-	.	.	.	.	.
=23	=23	=23	=23	=23	=23
2c	2e	2r	2g	1r	2cc
2d	2f	2d	2f	.	2b-
1c	2g	2e	[1e	2r	1cc
.	2a	[2c	.	2cc	.
=24	=24	=24	=24	=24	=24
1C	2.g	2c]	2e]	2.ee	2cc
.	.	1g	2c	.	2cc
.	4f	.	.	4ff	.
1C	4e	.	1cc	2gg	2.ee
.	4d	.	.	.	.
.	[2c	[2e	.	2gg	.
.	.	.	.	.	4ff
=25	=25	=25	=25	=25	=25
2E	4c]	2e]	2g	0cc	2gg
.	4B-	.	.	.	.
2F	2A	2c	2a	.	1ff
1C	1G	1c	2cc	.	.
.	.	.	2g	.	2ee
=26	=26	=26	=26	=26	=26
1F	1F	1c	1a	1cc	1ff
1r	[1B-	1r	[1b-	[1dd	[1ff
=27	=27	=27	=27	=27	=27
0r	1B-]	0r	1b-]	1dd]	1ff]
.	1c	.	1g	1cc	1ee
=28	=28	=28	=28	=28	=28
0r	2.d	0r	2.f	1a	1.dd
.	4c	.	4e	.	.
.	2B-	.	2d	2b-	.
.	2A	.	2e	2cc	2cc
=29	=29	=29	=29	=29	=29
0r	4G	0r	2g	1.dd	1b-
.	4A	.	.	.	.
.	4B-	.	4f	.	.
.	4c	.	4e	.	.
.	4d	.	4f	.	2.a
.	4e	.	4g	.	.
.	[2f	.	[2a	4cc	.
.	.	.	.	4b-	4g
=30	=30	=30	=30	=30	=30
0r	2f]	0r	2a]	1cc	2f
.	2e	.	1g	.	2g
.	1d	.	.	1dd	1a
.	.	.	2f#	.	.
=31	=31	=31	=31	=31	=31
1r	2G	1r	1g	0dd	2.b-
.	1g	.	.	.	.
.	.	.	.	.	4cc
[1B-	.	[1d	[1b-	.	4dd
.	.	.	.	.	4b-
.	2f	.	.	.	4dd
.	.	.	.	.	4ee
=32	=32	=32	=32	=32	=32
1B-]	0f	1d]	1b-]	0r	0ff
1F	.	1c	1a	.	.
=33	=33	=33	=33	=33	=33
2.G	2d	2.B-	1.g	0r	0r
.	4G	.	.	.	.
4F	4A	4A	.	.	.
2E-	4B-	4G	.	.	.
.	4c	4A	.	.	.
2D	2d	2B-	2f	.	.
=34	=34	=34	=34	=34	=34
1C	2.G	1c	1e-	0r	0r
.	4A	.	.	.	.
2BB-	4B-	[1f	2.d	.	.
.	4c	.	.	.	.
[2B-	[2d	.	.	.	.
.	.	.	4c	.	.
=35	=35	=35	=35	=35	=35
2B-]	2d]	1f]	2B-	0r	0r
2A	1c	.	2c	.	.
1G	.	[1g	1d	.	.
.	2B	.	.	.	.
=36	=36	=36	=36	=36	=36
1C	2c	1g]	1e	1r	1r
.	2G	.	.	.	.
[1BB-	4B-	1r	2.f	[1ff	[1dd
.	4c	.	.	.	.
.	4d	.	.	.	.
.	4e	.	8g	.	.
.	.	.	8a	.	.
=37	=37	=37	=37	=37	=37
1BB-]	2f	1d	1b-	1ff]	1dd]
.	2F	.	.	.	.
1C	2c	2e	1g	1ee	1cc
.	[2G	2c	.	.	.
=38	=38	=38	=38	=38	=38
2.G	4G]	1d	1g	1.dd	1.b-
.	4A	.	.	.	.
.	4B-	.	.	.	.
4A	4c	.	.	.	.
2B-	2d	1r	1f	.	.
2F	2A	.	.	2cc	2a
=39	=39	=39	=39	=39	=39
1G	1r	1r	1d	1b-	4g
.	.	.	.	.	4a
.	.	.	.	.	4b-
.	.	.	.	.	4cc
1D	[1a	[1f	1d	2a	1dd
.	.	.	.	4f	.
.	.	.	.	4g	.
=40	=40	=40	=40	=40	=40
1F	1a]	1f]	2r	4a	0cc
.	.	.	.	4b-	.
.	.	.	4A	4cc	.
.	.	.	4B-	4dd	.
1C	1g	1e	4c	4ee	.
.	.	.	4d	4ff	.
.	.	.	2e	4gg	.
.	.	.	.	4ee	.
=41	=41	=41	=41	=41	=41
2.D	1.f	1.d	2f	1ff	1a
.	.	.	2a	.	.
4C	.	.	.	.	.
2BB-	.	.	2b-	2dd	2r
2C	2e	2c	[2g	2gg	2cc
=42	=42	=42	=42	=42	=42
1.G	[0d	1.B-	2g]	4g	4dd
.	.	.	.	4a	4cc
.	.	.	4f	4b-	4b-
.	.	.	4e	4cc	4a
.	.	.	2.d	1dd	2g
4F	.	4A	.	.	[2a
4E	.	4G	4e	.	.
=43	=43	=43	=43	=43	=43
0D	0d]	2A	2f#	0dd	2a]
.	.	2B-	1g	.	2g
.	.	1A	.	.	1a
.	.	.	2f#	.	.
=44	=44	=44	=44	=44	=44
0G	0d	0G	0g	0dd	0b
==	==	==	==	==	==
*-	*-	*-	*-	*-	*-
!!!CDT: 1525/^1526/-1594/2/2
!!!OCY: Italia
!!!AGN: Mass (Paraphrase)
!!!AST: renaissance, vocal
!!!ASW: Antiphon
!!!PWK: Masses, Book 7
!!!RNB: Cadence finals: C,D
!!!YOR: Le Opere Complete, v. 23, p. 82
!!!YOO: Rome, Italy: Fratelli Scalera
!!!END: 1992//
!!!EED: John Miller
!!!YEC: Copyright 2000, John Miller
!!!YEN: United States of America
!!!YEM: Rights to all derivative electronic formats reserved.
!!!YEM: Refer to licensing agreement for further details.
!!!YEM: This file must be accompanied by the licensing agreement.
!!!YEM: A copy of the licensing agreement may be found at http://www.music-cog.ohio-state.edu/HumdrumDatabases/Palestrina/license.txt
!!!EMD: converted to Humdrum by Bret Aarden
